svg/u1f691.svg

<svg viewBox="0 0 128 128" xmlns="http://www.w3.org/2000/svg">
  <path d="M47.95,111.51l37.52,0.05l39.77-16.2c0,0,0.26-12.59-0.51-25.62c-0.77-13.03-4.38-32.84-4.38-32.84 s0.22-3.62-0.22-5.58c-0.42-1.86-1.54-3.37-4.65-3.55c-2.85-0.17-67.12,0-68.87,0.22c-1.75,0.22-12.3,12.97-12.3,12.97 S19.43,65.58,19,66.13c-0.44,0.55-10.16,7.1-11.71,9.09c-1.62,2.08-1.51,3.78-1.51,3.78l0.06,16.83L47.95,111.51z" fill="#E1E1E1"/>
  <path d="M125.25,95.35c0,0-21.72-0.2-26.21,0.74s-7.51,3.62-10.05,7.71c-2.55,4.09-3.55,7.78-3.55,7.78 s35.46-0.07,36.66,0s2.82-1.81,2.95-4.36C125.19,104.67,125.25,95.35,125.25,95.35z" fill="#516C73"/>
  <path d="M47.97,111.5c0,0-3.08-7.37-6.3-10.66s-7.91-5.5-13.54-5.7c-5.63-0.2-22.27-0.33-22.27-0.33 s-3.74,3.08-4.01,7.43c-0.27,4.36,0,8.51,3.49,8.78S47.97,111.5,47.97,111.5z" fill="#516C73"/>
  <path d="M15.48,112.45c0.08,4.73,3.85,11.55,12.07,11.6s12.48-6.24,12.22-12.69 c-0.26-6.56-5.36-11.18-12.69-10.98C20.21,100.58,15.37,105.9,15.48,112.45z" fill="#4E433D"/>
  <path d="M21.35,112.17c0.04,2.5,2.02,6.09,6.34,6.12c4.32,0.03,6.42-3.1,6.28-6.5 c-0.14-3.46-2.9-6.03-6.53-5.98C23.84,105.86,21.3,108.72,21.35,112.17z" fill="#C8C8C8"/>
  <path d="M93.93,111.89c0.08,4.73,3.85,11.55,12.07,11.6s12.48-6.24,12.22-12.69 c-0.26-6.56-5.36-11.18-12.69-10.98C98.67,100.01,93.83,105.33,93.93,111.89z" fill="#4E433D"/>
  <path d="M99.81,111.61c0.04,2.5,2.02,6.09,6.34,6.12c4.32,0.03,6.42-3.1,6.28-6.5 c-0.14-3.46-2.9-6.03-6.53-5.98C102.3,105.3,99.75,108.15,99.81,111.61z" fill="#C8C8C8"/>
  <path d="M5.82,90.86l119.47,0.47c0,0,0.02-2.12,0.02-4.92c0-2.76-0.1-4.83-0.1-4.83L5.74,81.55L5.82,90.86z" fill="#D70617"/>
  <path d="M5.76,78.97c0,0,12.17-0.05,12.83-0.05s1.18,0.51,1.18,1.38c0,0.87,0.36,4.09-2.25,6.49 c-1.12,1.03-3.54,1.25-5.83,1.28c-3.43,0.04-5.62,0.06-5.9,0.06c0,0-0.15-6.81-0.13-7.64C5.7,79.52,5.76,78.97,5.76,78.97z" fill="#FFE365"/>
  <path d="M34.05,41.4l87.09-0.02c0,0-0.12-0.77-0.35-2.26c-0.2-1.29-0.43-2.21-0.43-2.21L46.53,37l0.09-9.02 c0,0-1.79-0.21-2.73,0.67c-1.33,1.25-3.72,3.76-6.03,6.79C36.05,37.81,34.05,41.4,34.05,41.4z" fill="#C9C9C9"/>
  <path d="M37.32,31.86c-2.3,2.57-1.65,6.79-1.65,6.79s7.48,0.24,7.74-0.18c0.26-0.41,0.15-9.46,0.15-9.46 S40.43,28.37,37.32,31.86z" fill="#FA2B23"/>
  <path d="M46.62,28.01c0.41-0.05,23.78-0.2,23.78-0.2s0-4.01-0.04-5.46c-0.05-1.97-1.61-3.47-4.45-3.57 c-1.99-0.07-13.31-0.16-15.12-0.05c-1.81,0.1-3.88,1.61-3.99,3.88S46.62,28.01,46.62,28.01z" fill="#DD0F26"/>
  <path d="M55.42,23.2l1.32,2.88l-3.16-0.05c0,0-2.43-2.33-2.43-2.85c0-0.52,2.69-2.54,2.69-2.54l3.33-0.04 L55.42,23.2z" fill="#FF5B5E"/>
  <path d="M61.07,23.26l-1.17,2.9l2.63-0.02c0,0,2.7-2.32,2.73-2.77c0.04-0.65-2.71-2.76-2.71-2.76l-2.95-0.01 L61.07,23.26z" fill="#FF5B5E"/>
  <path d="M90.78,44.69c-0.21,1.68-0.35,16.27-0.35,16.27L90.5,75.9l7.47-0.14l0.42-15.29l-0.28-15.64 L90.78,44.69z" fill="#1E86FE"/>
  <polygon points="79.77,65.24 92.33,56.65 105.32,48.41 109.37,54.41 96.52,63.35 83.54,71.38 " fill="#1E86FE"/>
  <polygon points="83.12,48.69 79.21,54.55 91.63,63.7 104.48,71.66 108.6,65.79 95.61,56.65 " fill="#1E86FE"/>
  <path d="M38.09,45.76c-1.39,0.13-2.72,0.56-3.77,2.16c-1.05,1.61-10.12,18.01-11.03,19.55 c-0.49,0.83-1.07,2.12-0.85,3.13c0.19,0.85,1.07,1.49,2.03,1.55c2.09,0.14,28.76-0.07,30.23-0.07c1.47,0,2.72-1.26,2.79-3.49 s0.18-18.44,0-20.18c-0.21-2.02-1.54-2.65-3.21-2.72C52.74,45.62,39.55,45.62,38.09,45.76z" fill="#557077"/>
  <path d="M39.7,50.04c-1.37,0.02-2.43,0.47-3.48,2.22c-0.61,1.02-7.89,14.24-8.1,14.87 c-0.21,0.63,0.28,1.19,1.33,1.19s21.22-0.14,22.48-0.14c1.26,0,1.89-0.91,1.95-2.79c0.07-1.89,0-12.36,0-13.47s-0.56-1.89-2.02-1.89 C50.4,50.02,40.96,50.01,39.7,50.04z" fill="#AFE3FB"/>
</svg>

<svg viewBox="0 0 128 128" xmlns="http://www.w3.org/2000/svg">
  <defs/>
  <path d="M47.95,111.51 L85.47,111.56 L125.24,95.36 C125.24,95.36 125.5,82.77 124.73,69.74 C123.96,56.71 120.35,36.9 120.35,36.9 C120.35,36.9 120.57,33.28 120.13,31.32 C119.71,29.46 118.59,27.95 115.48,27.77 C112.63,27.6 48.36,27.77 46.61,27.99 C44.86,28.21 34.31,40.96 34.31,40.96 C34.31,40.96 19.43,65.58 19,66.13 C18.56,66.68 8.84,73.23 7.29,75.22 C5.67,77.3 5.78,79 5.78,79 L5.84,95.83 L47.95,111.51 Z" fill="#E1E1E1"/>
  <path d="M125.25,95.35 C125.25,95.35 103.53,95.15 99.04,96.09 C94.55,97.03 91.53,99.71 88.99,103.8 C86.44,107.89 85.44,111.58 85.44,111.58 C85.44,111.58 120.9,111.51 122.1,111.58 C123.3,111.65 124.92,109.77 125.05,107.22 C125.19,104.67 125.25,95.35 125.25,95.35 Z" fill="#516C73"/>
  <path d="M47.97,111.5 C47.97,111.5 44.89,104.13 41.67,100.84 C38.45,97.55 33.76,95.34 28.13,95.14 C22.5,94.94 5.86,94.81 5.86,94.81 C5.86,94.81 2.12,97.89 1.85,102.24 C1.58,106.6 1.85,110.75 5.34,111.02 C8.83,111.29 47.97,111.5 47.97,111.5 Z" fill="#516C73"/>
  <path d="M15.48,112.45 C15.56,117.18 19.33,124 27.55,124.05 C35.77,124.1 40.03,117.81 39.77,111.36 C39.51,104.8 34.41,100.18 27.08,100.38 C20.21,100.58 15.37,105.9 15.48,112.45 Z" fill="#4E433D"/>
  <path d="M21.35,112.17 C21.39,114.67 23.37,118.26 27.69,118.29 C32.01,118.32 34.11,115.19 33.97,111.79 C33.83,108.33 31.07,105.76 27.44,105.81 C23.84,105.86 21.3,108.72 21.35,112.17 Z" fill="#C8C8C8"/>
  <path d="M93.93,111.89 C94.01,116.62 97.78,123.44 106,123.49 C114.22,123.54 118.48,117.25 118.22,110.8 C117.96,104.24 112.86,99.62 105.53,99.82 C98.67,100.01 93.83,105.33 93.93,111.89 Z" fill="#4E433D"/>
  <path d="M99.81,111.61 C99.85,114.11 101.83,117.7 106.15,117.73 C110.47,117.76 112.57,114.63 112.43,111.23 C112.29,107.77 109.53,105.2 105.9,105.25 C102.3,105.3 99.75,108.15 99.81,111.61 Z" fill="#C8C8C8"/>
  <path d="M5.82,90.86 L125.29,91.33 C125.29,91.33 125.31,89.21 125.31,86.41 C125.31,83.65 125.21,81.58 125.21,81.58 L5.74,81.55 L5.82,90.86 Z" fill="#D70617"/>
  <path d="M5.76,78.97 C5.76,78.97 17.93,78.92 18.59,78.92 C19.25,78.92 19.77,79.43 19.77,80.3 C19.77,81.17 20.13,84.39 17.52,86.79 C16.4,87.82 13.98,88.04 11.69,88.07 C8.26,88.11 6.07,88.13 5.79,88.13 C5.79,88.13 5.64,81.32 5.66,80.49 C5.7,79.52 5.76,78.97 5.76,78.97 Z" fill="#FFE365"/>
  <path d="M34.05,41.4 L121.14,41.38 C121.14,41.38 121.02,40.61 120.79,39.12 C120.59,37.83 120.36,36.91 120.36,36.91 L46.53,37 L46.62,27.98 C46.62,27.98 44.83,27.77 43.89,28.65 C42.56,29.9 40.17,32.41 37.86,35.44 C36.05,37.81 34.05,41.4 34.05,41.4 Z" fill="#C9C9C9"/>
  <path d="M37.32,31.86 C35.02,34.43 35.67,38.65 35.67,38.65 C35.67,38.65 43.15,38.89 43.41,38.47 C43.67,38.06 43.56,29.01 43.56,29.01 C43.56,29.01 40.43,28.37 37.32,31.86 Z" fill="#FA2B23"/>
  <path d="M46.62,28.01 C47.03,27.96 70.4,27.81 70.4,27.81 C70.4,27.81 70.4,23.8 70.36,22.35 C70.31,20.38 68.75,18.88 65.91,18.78 C63.92,18.71 52.6,18.62 50.79,18.73 C48.98,18.83 46.91,20.34 46.8,22.61 C46.69,24.88 46.62,28.01 46.62,28.01 Z" fill="#DD0F26"/>
  <path d="M55.42,23.2 L56.74,26.08 L53.58,26.03 C53.58,26.03 51.15,23.7 51.15,23.18 C51.15,22.66 53.84,20.64 53.84,20.64 L57.17,20.6 L55.42,23.2 Z" fill="#FF5B5E"/>
  <path d="M61.07,23.26 L59.9,26.16 L62.53,26.14 C62.53,26.14 65.23,23.82 65.26,23.37 C65.3,22.72 62.55,20.61 62.55,20.61 L59.6,20.6 L61.07,23.26 Z" fill="#FF5B5E"/>
  <path d="M90.78,44.69 C90.57,46.37 90.43,60.96 90.43,60.96 L90.5,75.9 L97.97,75.76 L98.39,60.47 L98.11,44.83 L90.78,44.69 Z" fill="#1E86FE"/>
  <path d="M79.77,65.24 L92.33,56.65 L105.32,48.41 L109.37,54.41 L96.52,63.35 L83.54,71.38 Z" fill="#1E86FE"/>
  <path d="M83.12,48.69 L79.21,54.55 L91.63,63.7 L104.48,71.66 L108.6,65.79 L95.61,56.65 Z" fill="#1E86FE"/>
  <path d="M38.09,45.76 C36.7,45.89 35.37,46.32 34.32,47.92 C33.27,49.53 24.2,65.93 23.29,67.47 C22.8,68.3 22.22,69.59 22.44,70.6 C22.63,71.45 23.51,72.09 24.47,72.15 C26.56,72.29 53.23,72.08 54.7,72.08 C56.17,72.08 57.42,70.82 57.49,68.59 C57.56,66.36 57.67,50.15 57.49,48.41 C57.28,46.39 55.95,45.76 54.28,45.69 C52.74,45.62 39.55,45.62 38.09,45.76 Z" fill="#557077"/>
  <path d="M39.7,50.04 C38.33,50.06 37.27,50.51 36.22,52.26 C35.61,53.28 28.33,66.5 28.12,67.13 C27.91,67.76 28.4,68.32 29.45,68.32 C30.5,68.32 50.67,68.18 51.93,68.18 C53.19,68.18 53.82,67.27 53.88,65.39 C53.95,63.5 53.88,53.03 53.88,51.92 C53.88,50.81 53.32,50.03 51.86,50.03 C50.4,50.02 40.96,50.01 39.7,50.04 Z" fill="#AFE3FB"/>
</svg>
